svgs/regular/cactus.svg

<svg xmlns="http://www.w3.org/2000/svg" viewBox="0 0 512 512"><!--! Font Awesome Pro 6.6.0 by @fontawesome - https://fontawesome.com License - https://fontawesome.com/license (Commercial License) Copyright 2024 Fonticons, Inc. --><path d="M304 448c0 8.8-7.2 16-16 16l-64 0c-8.8 0-16-7.2-16-16l0-352c0-26.5 21.5-48 48-48s48 21.5 48 48l0 352zM256 0c-53 0-96 43-96 96l0 128-48 0c-8.8 0-16-7.2-16-16l0-64c0-26.5-21.5-48-48-48S0 117.5 0 144l0 64c0 61.9 50.1 112 112 112l48 0 0 128c0 35.3 28.7 64 64 64l64 0c35.3 0 64-28.7 64-64l48 0c61.9 0 112-50.1 112-112l0-64c0-26.5-21.5-48-48-48s-48 21.5-48 48l0 64c0 8.8-7.2 16-16 16l-48 0 0-256c0-53-43-96-96-96zm0 144a16 16 0 1 0 -32 0 16 16 0 1 0 32 0zm16 240a16 16 0 1 0 0-32 16 16 0 1 0 0 32z"/></svg>

<svg xmlns="http://www.w3.org/2000/svg" viewBox="0 0 512 512"><!--! Font Awesome Pro 6.4.0 by @fontawesome - https://fontawesome.com License - https://fontawesome.com/license (Commercial License) Copyright 2023 Fonticons, Inc. --><path d="M304 448c0 8.8-7.2 16-16 16H224c-8.8 0-16-7.2-16-16V96c0-26.5 21.5-48 48-48s48 21.5 48 48V448zM256 0c-53 0-96 43-96 96V224H112c-8.8 0-16-7.2-16-16V144c0-26.5-21.5-48-48-48S0 117.5 0 144v64c0 61.9 50.1 112 112 112h48V448c0 35.3 28.7 64 64 64h64c35.3 0 64-28.7 64-64h48c61.9 0 112-50.1 112-112V272c0-26.5-21.5-48-48-48s-48 21.5-48 48v64c0 8.8-7.2 16-16 16H352V96c0-53-43-96-96-96zm0 144a16 16 0 1 0 -32 0 16 16 0 1 0 32 0zm16 240a16 16 0 1 0 0-32 16 16 0 1 0 0 32z"/></svg>
